src/assets/icons/Analytics.svg

<svg version="1.2" xmlns="http://www.w3.org/2000/svg" viewBox="0 0 100 100" width="100" height="100">
	<title>Analytics</title>
	<style>
		.s0 { fill: #aeabab } 
	</style>
	<g id="_28-Analytics">
		<path class="s0" d="m98.1 26v49.7c0 3.6-3 6.6-6.6 6.6h-82.9c-3.6 0-6.6-3-6.6-6.6v-49.7c0-3.6 3-6.6 6.6-6.6h17.2l-4 5h-14.9v43.1h86.2v-43.2h-22.4l4.3-5h16.4c3.7 0 6.7 3 6.7 6.7zm-36.2-6.7h-5l2.7 2.7zm-13.9 5h-13.4l4-5h4.4zm8.6 51.4c0-1-0.7-1.7-1.7-1.7h-9.9c-1 0-1.7 0.7-1.7 1.7 0 1 0.7 1.7 1.7 1.7h10c1-0.1 1.6-0.7 1.6-1.7zm8.3 16.6h-29.8c-1.8 0-3.3 1.5-3.3 3.3v3.3h36.5v-3.3c-0.1-1.9-1.6-3.3-3.4-3.3zm-23.8-6.7c-0.5 1.2-1 2.3-1.7 3.3h21.2c-0.7-1-1.3-2.2-1.7-3.3zm22.2-43.1h-6.6c-1 0-1.7 0.7-1.7 1.7v11.6h9.9v-11.6c0-1-0.6-1.7-1.6-1.7zm19.8-13.2h-6.6c-1 0-1.7 0.7-1.7 1.7v24.9h9.9v-25c0.1-1-0.6-1.6-1.6-1.6zm-67.9 26.5h9.9v-6.6c0-1-0.7-1.7-1.7-1.7h-6.6c-1 0-1.7 0.7-1.7 1.7v6.6zm21.5-21.5c-1 0-1.7 0.7-1.7 1.7v19.9h10v-20c0-1-0.7-1.7-1.7-1.7h-6.6zm-10.2-5.3l9.8-12.3c-1-0.5-1.8-1.2-2.7-2l-9.8 12.3c1.2 0.5 2 1.1 2.7 2zm26.6-4.2c0.7-1 1.3-1.8 2.3-2.3l-8.4-8.5c-0.7 1-1.5 1.7-2.3 2.3zm13.5-0.7l9.3-10.8c-1-0.7-1.8-1.3-2.5-2.2l-9.3 10.9c0.8 0.5 1.8 1.3 2.5 2.1zm-26.5-9.7c2.8 0 5-2.2 5-5 0-2.8-2.2-5-5-5-2.8 0-5 2.2-5 5 0 2.8 2.1 5 5 5zm20 19.9c2.8 0 5-2.2 5-5 0-2.8-2.2-5-5-5-2.8 0-5 2.2-5 5 0 2.8 2.2 5 5 5zm19.7-23.2c2.8 0 5-2.2 5-5 0-2.8-2.2-5-5-5-2.8 0-5 2.2-5 5 0 2.8 2.2 5 5 5zm-59.6 28.1c2.8 0 5-2.2 5-5 0-2.8-2.2-5-5-5-2.8 0-5 2.2-5 5 0 2.8 2.2 5 5 5zm-10 21.6c0 1 0.7 1.7 1.7 1.7h76.2c1 0 1.7-0.7 1.7-1.7 0-1-0.7-1.7-1.7-1.7h-76.2c-1 0-1.7 0.7-1.7 1.7z"/>
	</g>
</svg>

<?xml version="1.0" encoding="utf-8"?>
<!-- Generator: Adobe Illustrator 27.8.0, SVG Export Plug-In . SVG Version: 6.00 Build 0)  -->
<svg version="1.1" id="Layer_1" xmlns="http://www.w3.org/2000/svg" xmlns:xlink="http://www.w3.org/1999/xlink" x="0px" y="0px"
	 viewBox="0 0 100 100" style="enable-background:new 0 0 100 100;" xml:space="preserve">
<style type="text/css">
	.st0{fill:#4D4D4D;}
</style>
<g id="_28-Analytics">
	<path class="st0" d="M48,24.3H34.6l4-5H43L48,24.3z M61.9,19.3h-5l2.7,2.7L61.9,19.3z M98.1,26v49.7c0,3.6-3,6.6-6.6,6.6l0,0H8.6
		c-3.6,0-6.6-3-6.6-6.6l0,0V26c0-3.6,3-6.6,6.6-6.6l0,0h17.2l-4,5H6.9v43.1h86.2V24.3H70.7l4.3-5h16.4C95.1,19.3,98.1,22.3,98.1,26
		L98.1,26z M56.6,75.7c0-1-0.7-1.7-1.7-1.7H45c-1,0-1.7,0.7-1.7,1.7s0.7,1.7,1.7,1.7H55C56,77.3,56.6,76.7,56.6,75.7z M64.9,92.3
		H35.1c-1.8,0-3.3,1.5-3.3,3.3v3.3h36.5v-3.3C68.2,93.7,66.7,92.3,64.9,92.3z M41.1,85.6c-0.5,1.2-1,2.3-1.7,3.3h21.2
		c-0.7-1-1.3-2.2-1.7-3.3H41.1z M63.3,42.5h-6.6c-1,0-1.7,0.7-1.7,1.7v11.6h9.9V44.2C64.9,43.2,64.3,42.5,63.3,42.5z M83.1,29.3
		h-6.6c-1,0-1.7,0.7-1.7,1.7v24.9h9.9V30.9C84.8,29.9,84.1,29.3,83.1,29.3z M15.2,55.8h9.9v-6.6c0-1-0.7-1.7-1.7-1.7h-6.6
		c-1,0-1.7,0.7-1.7,1.7V55.8z M36.7,34.3c-1,0-1.7,0.7-1.7,1.7v19.9H45V35.9c0-1-0.7-1.7-1.7-1.7H36.7z M26.5,29l9.8-12.3
		c-1-0.5-1.8-1.2-2.7-2L23.8,27C25,27.5,25.8,28.1,26.5,29z M53.1,24.8c0.7-1,1.3-1.8,2.3-2.3L47,14c-0.7,1-1.5,1.7-2.3,2.3
		L53.1,24.8z M66.6,24.1l9.3-10.8c-1-0.7-1.8-1.3-2.5-2.2L64.1,22C64.9,22.5,65.9,23.3,66.6,24.1z M40.1,14.4c2.8,0,5-2.2,5-5
		s-2.2-5-5-5s-5,2.2-5,5S37.2,14.4,40.1,14.4z M60.1,34.3c2.8,0,5-2.2,5-5s-2.2-5-5-5s-5,2.2-5,5S57.3,34.3,60.1,34.3z M79.8,11.1
		c2.8,0,5-2.2,5-5s-2.2-5-5-5s-5,2.2-5,5S77,11.1,79.8,11.1z M20.2,39.2c2.8,0,5-2.2,5-5s-2.2-5-5-5s-5,2.2-5,5S17.4,39.2,20.2,39.2
		z M10.2,60.8c0,1,0.7,1.7,1.7,1.7h76.2c1,0,1.7-0.7,1.7-1.7s-0.7-1.7-1.7-1.7H11.9C10.9,59.1,10.2,59.8,10.2,60.8z"/>
</g>
</svg>
